ix/gift_bulk.svg

<svg viewBox="0 0 24 24" fill="none" xmlns="http://www.w3.org/2000/svg" height="1em" width="1em">
  <path opacity="0.4" d="M19.9707 10V18C19.9707 21 18.9707 22 15.9707 22H7.9707C4.9707 22 3.9707 21 3.9707 18V10H19.9707Z" fill="#292D32"/>
  <path d="M21.5 7V8C21.5 9.1 20.97 10 19.5 10H4.5C2.97 10 2.5 9.1 2.5 8V7C2.5 5.9 2.97 5 4.5 5H19.5C20.97 5 21.5 5.9 21.5 7Z" fill="#292D32"/>
  <path opacity="0.4" d="M11.6408 4.99994H6.12076C5.78076 4.62994 5.79076 4.05994 6.15076 3.69994L7.57076 2.27994C7.94076 1.90994 8.55076 1.90994 8.92076 2.27994L11.6408 4.99994Z" fill="#292D32"/>
  <path opacity="0.4" d="M17.8696 4.99994H12.3496L15.0696 2.27994C15.4396 1.90994 16.0496 1.90994 16.4196 2.27994L17.8396 3.69994C18.1996 4.05994 18.2096 4.62994 17.8696 4.99994Z" fill="#292D32"/>
  <path opacity="0.6" d="M8.93945 10V15.14C8.93945 15.94 9.81945 16.41 10.4895 15.98L11.4295 15.36C11.7695 15.14 12.1995 15.14 12.5295 15.36L13.4195 15.96C14.0795 16.4 14.9695 15.93 14.9695 15.13V10H8.93945Z" fill="#292D32"/>
</svg>

<svg viewBox="0 0 24 24" fill="none" xmlns="http://www.w3.org/2000/svg" height="1em" width="1em">
  <path opacity=".4" d="M19.97 10v8c0 3-1 4-4 4h-8c-3 0-4-1-4-4v-8h16Z" fill="#292D32"/>
  <path d="M21.5 7v1c0 1.1-.53 2-2 2h-15c-1.53 0-2-.9-2-2V7c0-1.1.47-2 2-2h15c1.47 0 2 .9 2 2Z" fill="#292D32"/>
  <path opacity=".4" d="M11.64 5H6.12a.936.936 0 0 1 .03-1.3l1.42-1.42a.96.96 0 0 1 1.35 0L11.64 5Zm6.23 0h-5.52l2.72-2.72a.96.96 0 0 1 1.35 0l1.42 1.42c.36.36.37.93.03 1.3Z" fill="#292D32"/>
  <path opacity=".6" d="M8.94 10v5.14c0 .8.88 1.27 1.55.84l.94-.62a1 1 0 0 1 1.1 0l.89.6a.997.997 0 0 0 1.55-.83V10H8.94Z" fill="#292D32"/>
</svg>
